flaticon/gastronomy/chef.svg

<svg xmlns="http://www.w3.org/2000/svg" width="32" height="32" viewBox="0 0 24 24">
    <path d="M 18.9375 2.550781 C 18.160156 2.449219 17.378906 2.507812 16.617188 2.726562 C 15.523438 1.285156 13.820312 0.433594 12 0.433594 C 10.179688 0.433594 8.476562 1.285156 7.382812 2.726562 C 6.621094 2.507812 5.839844 2.449219 5.0625 2.550781 C 2.199219 2.921875 0.0234375 5.367188 0 8.246094 C -0.0234375 10.9375 1.78125 13.269531 4.390625 13.917969 C 5.007812 14.070312 5.464844 14.601562 5.527344 15.238281 L 5.871094 18.878906 L 6.070312 20.960938 C 6.15625 21.847656 7.277344 22.457031 7.75 22.675781 C 7.820312 22.707031 7.875 22.730469 7.910156 22.746094 C 9.210938 23.292969 10.605469 23.566406 12 23.566406 C 13.394531 23.566406 14.789062 23.292969 16.085938 22.746094 C 16.378906 22.625 17.832031 21.976562 17.929688 20.960938 L 18.125 18.878906 L 18.472656 15.238281 C 18.53125 14.601562 18.988281 14.070312 19.609375 13.917969 C 22.21875 13.269531 24.023438 10.9375 24 8.246094 C 23.976562 5.367188 21.800781 2.921875 18.9375 2.550781 Z M 15.769531 21.984375 C 13.375 22.992188 10.625 22.992188 8.230469 21.980469 C 7.710938 21.765625 6.933594 21.269531 6.894531 20.882812 L 6.84375 20.34375 C 8.480469 21.136719 10.210938 21.535156 12 21.535156 C 13.789062 21.535156 15.519531 21.136719 17.15625 20.34375 L 17.105469 20.882812 C 17.066406 21.269531 16.285156 21.765625 15.769531 21.984375 Z M 19.410156 13.113281 C 18.453125 13.351562 17.742188 14.175781 17.648438 15.15625 L 17.25 19.363281 C 15.59375 20.253906 13.828125 20.707031 12 20.707031 C 10.171875 20.707031 8.40625 20.253906 6.75 19.363281 L 6.351562 15.15625 C 6.257812 14.175781 5.546875 13.351562 4.589844 13.113281 C 2.355469 12.558594 0.808594 10.558594 0.828125 8.25 C 0.847656 5.785156 2.714844 3.6875 5.167969 3.371094 C 5.375 3.34375 5.585938 3.328125 5.792969 3.328125 C 6.335938 3.328125 6.878906 3.421875 7.410156 3.605469 L 7.707031 3.707031 L 7.886719 3.445312 C 8.8125 2.078125 10.351562 1.261719 12 1.261719 C 13.648438 1.261719 15.1875 2.078125 16.113281 3.445312 L 16.292969 3.707031 L 16.589844 3.605469 C 17.324219 3.351562 18.078125 3.273438 18.832031 3.371094 C 21.285156 3.6875 23.152344 5.785156 23.171875 8.25 C 23.191406 10.558594 21.644531 12.558594 19.410156 13.113281 Z M 19.410156 13.113281"/>
    <path d="M7.8125 14.503906C7.585938 14.535156 7.421875 14.742188 7.453125 14.96875L7.867188 18.277344C7.890625 18.488281 8.070312 18.640625 8.277344 18.640625 8.292969 18.640625 8.308594 18.640625 8.328125 18.636719 8.554688 18.609375 8.714844 18.402344 8.6875 18.175781L8.273438 14.863281C8.242188 14.636719 8.035156 14.480469 7.8125 14.503906zM10.757812 15.328125C10.53125 15.328125 10.34375 15.515625 10.34375 15.742188L10.34375 19.054688C10.34375 19.28125 10.53125 19.46875 10.757812 19.46875 10.988281 19.46875 11.171875 19.28125 11.171875 19.054688L11.171875 15.742188C11.171875 15.515625 10.988281 15.328125 10.757812 15.328125zM16.1875 14.503906C15.964844 14.480469 15.753906 14.636719 15.726562 14.863281L15.3125 18.175781C15.285156 18.402344 15.445312 18.609375 15.671875 18.636719 15.691406 18.640625 15.707031 18.640625 15.722656 18.640625 15.929688 18.640625 16.109375 18.488281 16.132812 18.277344L16.546875 14.96875C16.578125 14.742188 16.414062 14.535156 16.1875 14.503906zM13.242188 15.328125C13.011719 15.328125 12.828125 15.515625 12.828125 15.742188L12.828125 19.054688C12.828125 19.28125 13.011719 19.46875 13.242188 19.46875 13.46875 19.46875 13.65625 19.28125 13.65625 19.054688L13.65625 15.742188C13.65625 15.515625 13.46875 15.328125 13.242188 15.328125zM6.625 4.570312C3.171875 4.542969 2.5 7.351562 2.492188 7.378906 2.445312 7.601562 2.585938 7.824219 2.808594 7.871094 2.835938 7.878906 2.867188 7.882812 2.898438 7.882812 3.085938 7.882812 3.257812 7.75 3.300781 7.554688 3.304688 7.535156 3.800781 5.351562 6.617188 5.398438 6.839844 5.382812 7.03125 5.21875 7.035156 4.988281 7.039062 4.761719 6.855469 4.574219 6.625 4.570312zM9.679688 3.003906C9.496094 3.140625 9.464844 3.402344 9.605469 3.582031 9.742188 3.761719 10.003906 3.796875 10.183594 3.65625 10.203125 3.644531 11.929688 2.339844 13.832031 3.667969 13.902344 3.71875 13.988281 3.742188 14.070312 3.742188 14.199219 3.742188 14.328125 3.683594 14.410156 3.566406 14.539062 3.378906 14.492188 3.121094 14.304688 2.992188 12.390625 1.652344 10.441406 2.414062 9.679688 3.003906zM9.679688 3.003906"/>
</svg>

<svg xmlns="http://www.w3.org/2000/svg" width="32" height="32" viewBox="0 0 24 24">
    <path d="M18.938 2.55a5.69 5.69 0 0 0-2.32.177A5.79 5.79 0 0 0 12 .434a5.79 5.79 0 0 0-4.617 2.293 5.69 5.69 0 0 0-2.32-.176C2.199 2.92.022 5.367 0 8.246a5.77 5.77 0 0 0 4.39 5.672 1.512 1.512 0 0 1 1.137 1.32l.344 3.64.2 2.083c.085.887 1.206 1.496 1.679 1.715l.16.07c1.3.547 2.695.82 4.09.82s2.79-.273 4.086-.82c.293-.121 1.746-.77 1.844-1.785l.195-2.082.348-3.64a1.502 1.502 0 0 1 1.136-1.321A5.77 5.77 0 0 0 24 8.246c-.023-2.879-2.2-5.324-5.063-5.695zM15.77 21.985a9.76 9.76 0 0 1-7.54-.004c-.52-.214-1.296-.71-1.335-1.097l-.051-.54A11.72 11.72 0 0 0 12 21.536c1.79 0 3.52-.398 5.156-1.191l-.05.539c-.04.387-.82.883-1.336 1.101zm3.64-8.87a2.344 2.344 0 0 0-1.762 2.042l-.398 4.207c-1.656.89-3.422 1.344-5.25 1.344-1.828 0-3.594-.453-5.25-1.344l-.398-4.207a2.344 2.344 0 0 0-1.762-2.043A4.948 4.948 0 0 1 .828 8.25c.02-2.465 1.887-4.563 4.34-4.879a4.8 4.8 0 0 1 .625-.043 4.94 4.94 0 0 1 1.617.277l.297.102.18-.262a4.965 4.965 0 0 1 8.226 0l.18.262.297-.102a4.883 4.883 0 0 1 2.242-.234c2.453.317 4.32 2.414 4.34 4.879a4.948 4.948 0 0 1-3.762 4.863zm0 0"/>
    <path d="M7.813 14.504a.416.416 0 0 0-.36.465l.414 3.308a.41.41 0 0 0 .41.364c.016 0 .032 0 .051-.004a.413.413 0 0 0 .36-.461l-.415-3.313a.42.42 0 0 0-.46-.36zm0 0M10.758 15.328a.417.417 0 0 0-.414.414v3.313a.414.414 0 0 0 .828 0v-3.313a.414.414 0 0 0-.414-.414zm0 0M16.188 14.504a.418.418 0 0 0-.461.36l-.415 3.312a.413.413 0 0 0 .82.101l.415-3.308a.416.416 0 0 0-.36-.465zm0 0M13.242 15.328a.414.414 0 0 0-.414.414v3.313a.414.414 0 0 0 .828 0v-3.313a.417.417 0 0 0-.414-.414zm0 0M6.625 4.57C3.172 4.543 2.5 7.352 2.492 7.38a.415.415 0 0 0 .406.504c.188 0 .36-.133.403-.328.004-.02.5-2.203 3.316-2.157.223-.015.414-.18.418-.41a.414.414 0 0 0-.41-.418zm0 0M9.68 3.004a.408.408 0 0 0-.075.578c.137.18.399.215.579.074.02-.011 1.746-1.316 3.648.012a.41.41 0 0 0 .238.074.412.412 0 0 0 .235-.75c-1.914-1.34-3.864-.578-4.625.012zm0 0"/>
</svg>
